static/images/desktop-wrapper/mobile-top.svg

<?xml version="1.0" encoding="UTF-8" standalone="no"?>
<svg width="351px" height="81px" viewBox="0 0 351 81" version="1.1" xmlns="http://www.w3.org/2000/svg" xmlns:xlink="http://www.w3.org/1999/xlink" xmlns:sketch="http://www.bohemiancoding.com/sketch/ns">
    <!-- Generator: Sketch 3.2.2 (9983) - http://www.bohemiancoding.com/sketch -->
    <title>mobile</title>
    <desc>Created with Sketch.</desc>
    <defs></defs>
    <g id="Page-1" stroke="none" stroke-width="1" fill="none" fill-rule="evenodd" sketch:type="MSPage">
        <g id="mobile" sketch:type="MSLayerGroup">
            <g id="Desktop-UI-For-Published-Apps" sketch:type="MSShapeGroup">
                <g id="Desktop-UI-Frame">
                    <g id="Group">
                        <g id="mobile-+-Segmented-Control">
                            <g id="mobile">
                                <g id="Page-1">
                                    <g id="Landing-Page-Bright-Pattern-Iteration-3">
                                        <g id="iMac-+-Browser-3-+-Group-3-+-iPad-+-Group-2">
                                            <g id="mobile">
                                                <g id="google-nexus-4-2">
                                                    <g id="Page-1">
                                                        <path d="M351,633 C351,633.0395 350.890528,665.210388 301,682 C274.00531,691.64041 206.378836,690.990212 176,691 C144.640106,690.990212 74.6119351,691.64041 48,682 C-2.27326947,665.210394 0.0189653821,633.0395 0,633 C0,633 0.0189653821,623.273393 0,618 C0.0189653817,428.8771 0,50 0,50 C0.0189653811,49.850622 -2.40528426,23.048144 48,8 C74.5495331,0.345899925 144.739205,9.14712676e-06 176,0 C206.27978,0 274.067726,0.345899866 301,8 C351.015907,23.0461964 351.000002,49.843515 351,50 L351,633 Z M15,81 L15,620 L334,620 L334,81 L15,81 L15,81 Z" id="Google-Nexus-4" fill="#4A4A4A"></path>
                                                        <path d="M301.001232,41.6340233 C305.243885,41.6340233 308.683235,38.1729852 308.683235,33.9035777 C308.683235,29.6341702 305.243885,26.1731321 301.001232,26.1731321 C296.758578,26.1731321 293.319228,29.6341702 293.319228,33.9035777 C293.319228,38.1729852 296.758578,41.6340233 301.001232,41.6340233 L301.001232,41.6340233 L301.001232,41.6340233 Z" id="Google-Nexus-4-path" fill="#303030"></path>
                                                        <path d="M175.753246,18.7004826 C155.910448,18.700483 138.073042,19.8102534 138.073042,19.8102534 C136.776228,19.8844372 136.344634,20.8007356 137.1105,21.8588665 L141.186187,27.489885 C141.951404,28.547119 143.638125,29.4041765 144.927238,29.4041765 L206.399645,29.4041765 C207.700552,29.4041765 209.37827,28.5311957 210.137838,27.4670583 L214.124602,21.8816933 C214.888242,20.8118524 214.441809,19.8811699 213.145885,19.8078766 C213.145885,19.8078766 195.596044,18.7004826 175.753246,18.7004826 L175.753246,18.7004826 L175.753246,18.7004826 Z" id="Google-Nexus-4-path" fill="#303030"></path>
                                                    </g>
                                                </g>
                                            </g>
                                        </g>
                                    </g>
                                </g>
                            </g>
                        </g>
                    </g>
                </g>
            </g>
        </g>
    </g>
</svg>

<svg width="351" height="81" viewBox="0 0 351 81" xmlns="http://www.w3.org/2000/svg"><title>mobile</title><desc>Created with Sketch.</desc><g id="Page-1" fill="none" fill-rule="evenodd"><g id="mobile"><g><g><path d="M351 633c0 .04-.11 32.21-50 49-26.995 9.64-94.62 8.99-125 9-31.36-.01-101.388.64-128-9C-2.273 665.21.02 633.04 0 633c0 0 .02-9.727 0-15C.02 428.877 0 50 0 50c.02-.15-2.405-26.952 48-42C74.55.346 144.74 0 176 0c30.28 0 98.068.346 125 8 50.016 15.046 50 41.844 50 42v583zM15 81v539h319V81H15z" fill="#4A4A4A"/><path d="M301 41.634c4.244 0 7.683-3.46 7.683-7.73 0-4.27-3.44-7.73-7.682-7.73-4.24 0-7.68 3.46-7.68 7.73 0 4.27 3.44 7.73 7.68 7.73zM175.753 18.7c-19.843 0-37.68 1.11-37.68 1.11-1.297.074-1.728.99-.963 2.05l4.076 5.63c.765 1.057 2.452 1.914 3.74 1.914H206.4c1.3 0 2.978-.873 3.738-1.937l3.987-5.585c.763-1.07.317-2-.98-2.074 0 0-17.55-1.108-37.392-1.108z" fill="#303030"/></g></g></g></g></svg>
